X:6214
T:Splendid Isolation
O:england
M:4/4
L:1/8
C:Brendan McGlinchy
R:Reel
K:GDor
FGGF GdcA|~G2AG ~F3c|dAcA ~G2 (3A=Bc|d2gd ~g3a|
bgag f~d3|~f3g fdcA|~G2AG ~F3c|dAcA G2z2:|
:gfag f~d3|gfdc (3A=Bc dc|A~G3 (3A=Bc dc|A~G3 EF~F2|
FGGF GdcA|~G2AG FG (3A=Bc|d~g3 fgag|fdcA G2z2:|


